**harm	**harte	**timestamp	**phrase	**leadinstrument	**kern
*M4/4	*M4/4	*	*	*	*
*A-:	*A-:	*	*	*	*A-:
1r;	N	0	.	r	1r;
=1	=1	=1	=1	=1	=1
*>A_intro	*>A_intro	*>A_intro	*>A_intro	*>A_intro	*>A_intro
1r	N	0.418	newline	r	1r
=2	=2	=2	=2	=2	=2
1r	N	3.467	.	r	1r
=3	=3	=3	=3	=3	=3
*>B2_chorus	*>B2_chorus	*>B2_chorus	*>B2_chorus	*>B2_chorus	*>B2_chorus
1r	N	6.516	newline	voice	1r
=4	=4	=4	=4	=4	=4
1r	N	9.518	.	voice	1r
=5	=5	=5	=5	=5	=5
1r	N	12.52	.	voice	1r
=6	=6	=6	=6	=6	=6
1r	N	15.522	.	voice	1r
=7	=7	=7	=7	=7	=7
1Im7	A-:7	18.525	newline	voice	1A- 1cc 1ee- 1gg
=8	=8	=8	=8	=8	=8
1Im7	A-:7	21.533	.	voice	1A- 1cc 1ee- 1gg
=9	=9	=9	=9	=9	=9
1IVm7	D-:7	24.542	.	voice	1D- 1f 1a- 1cc
=10	=10	=10	=10	=10	=10
1Im7	A-:7	27.55	.	voice	1A- 1cc 1ee- 1gg
=11	=11	=11	=11	=11	=11
*>C_bridge	*>C_bridge	*>C_bridge	*>C_bridge	*>C_bridge	*>C_bridge
1-VII	G-:maj	30.559	newline	voice	1G- 1b- 1dd-
=12	=12	=12	=12	=12	=12
1-VII	G-:maj	33.587	.	voice	1G- 1b- 1dd-
=13	=13	=13	=13	=13	=13
1I	A-:maj	36.616	.	voice	1A- 1cc 1ee-
=14	=14	=14	=14	=14	=14
1I	A-:maj	39.645	.	voice	1A- 1cc 1ee-
=15	=15	=15	=15	=15	=15
1-IIIm7	C-:7	42.674	newline	voice	1C- 1e- 1g- 1b-
=16	=16	=16	=16	=16	=16
1-IIIm7	C-:7	45.665	.	voice	1C- 1e- 1g- 1b-
=17	=17	=17	=17	=17	=17
1ii	B-:min	48.657	.	voice	1B- 1dd- 1ff
=18	=18	=18	=18	=18	=18
1V7	E-:7	51.648	.	voice	1E- 1g 1b- 1dd-
=19	=19	=19	=19	=19	=19
*>B_chorus	*>B_chorus	*>B_chorus	*>B_chorus	*>B_chorus	*>B_chorus
1Im7	A-:7	54.64	newline	voice	1A- 1cc 1ee- 1gg
=20	=20	=20	=20	=20	=20
1Im7	A-:7	57.664	.	voice	1A- 1cc 1ee- 1gg
=21	=21	=21	=21	=21	=21
1IVm7	D-:7	60.689	.	voice	1D- 1f 1a- 1cc
=22	=22	=22	=22	=22	=22
1Im7	A-:7	63.713	.	voice	1A- 1cc 1ee- 1gg
=23	=23	=23	=23	=23	=23
1Im7	A-:7	66.738	newline	voice	1A- 1cc 1ee- 1gg
=24	=24	=24	=24	=24	=24
1Im7	A-:7	69.728	.	voice	1A- 1cc 1ee- 1gg
=25	=25	=25	=25	=25	=25
1IVm7	D-:7	72.719	.	voice	1D- 1f 1a- 1cc
=26	=26	=26	=26	=26	=26
1Im7	A-:7	75.71	.	voice	1A- 1cc 1ee- 1gg
=27	=27	=27	=27	=27	=27
*>C_bridge	*>C_bridge	*>C_bridge	*>C_bridge	*>C_bridge	*>C_bridge
1-VII	G-:maj	78.7	newline	voice	1G- 1b- 1dd-
=28	=28	=28	=28	=28	=28
1-VII	G-:maj	81.716	.	voice	1G- 1b- 1dd-
=29	=29	=29	=29	=29	=29
1I	A-:maj	84.733	.	voice	1A- 1cc 1ee-
=30	=30	=30	=30	=30	=30
1I	A-:maj	87.749	.	voice	1A- 1cc 1ee-
=31	=31	=31	=31	=31	=31
1-IIIm7	C-:7	90.765	newline	voice	1C- 1e- 1g- 1b-
=32	=32	=32	=32	=32	=32
1-IIIm7	C-:7	93.802	.	voice	1C- 1e- 1g- 1b-
=33	=33	=33	=33	=33	=33
1ii	B-:min	96.839	.	voice	1B- 1dd- 1ff
=34	=34	=34	=34	=34	=34
1V7	E-:7	99.876	.	voice	1E- 1g 1b- 1dd-
=35	=35	=35	=35	=35	=35
*>D_interlude	*>D_interlude	*>D_interlude	*>D_interlude	*>D_interlude	*>D_interlude
1I	A-:maj	102.913	newline	voice	1A- 1cc 1ee-
=36	=36	=36	=36	=36	=36
1-VII	G-:maj	105.917	.	voice	1G- 1b- 1dd-
=37	=37	=37	=37	=37	=37
1I	A-:maj	108.92	.	voice	1A- 1cc 1ee-
=38	=38	=38	=38	=38	=38
1-III	C-:maj	111.924	.	voice	1C- 1e- 1g-
=39	=39	=39	=39	=39	=39
*>B_chorus	*>B_chorus	*>B_chorus	*>B_chorus	*>B_chorus	*>B_chorus
1Im7	A-:7	114.927	newline	voice	1A- 1cc 1ee- 1gg
=40	=40	=40	=40	=40	=40
1Im7	A-:7	117.991	.	voice	1A- 1cc 1ee- 1gg
=41	=41	=41	=41	=41	=41
1IVm7	D-:7	121.055	.	voice	1D- 1f 1a- 1cc
=42	=42	=42	=42	=42	=42
1Im7	A-:7	124.118	.	voice	1A- 1cc 1ee- 1gg
=43	=43	=43	=43	=43	=43
1Im7	A-:7	127.182	newline	voice	1A- 1cc 1ee- 1gg
=44	=44	=44	=44	=44	=44
1Im7	A-:7	130.207	.	voice	1A- 1cc 1ee- 1gg
=45	=45	=45	=45	=45	=45
1IVm7	D-:7	133.233	.	voice	1D- 1f 1a- 1cc
=46	=46	=46	=46	=46	=46
1Im7	A-:7	136.258	.	voice	1A- 1cc 1ee- 1gg
=47	=47	=47	=47	=47	=47
*>B_fadeout	*>B_fadeout	*>B_fadeout	*>B_fadeout	*>B_fadeout	*>B_fadeout
1Im7	A-:7	139.284	newline	voice	1A- 1cc 1ee- 1gg
=48	=48	=48	=48	=48	=48
1Im7	A-:7	141.969	.	voice	1A- 1cc 1ee- 1gg
=49	=49	=49	=49	=49	=49
1IVm7	D-:7	144.654	.	voice	1D- 1f 1a- 1cc
=50	=50	=50	=50	=50	=50
1Im7	A-:7	147.339	.	voice	1A- 1cc 1ee- 1gg
1r;	N	150.024	.	r	1r;
1r;	N	153.913	.	r	1r;
*-	*-	*-	*-	*-	*-
!!!OTL: I Can't Stand The Rain
!!!COC: Ann Peebles
!!!BillboardChartDate: 1973/09/22
!!!BillboardPeak: 38
!!!BillboardWeeksOnChart: 21
!!!SampleTargetRank: 68
!!!SampleActualRank: 70
!!!SampleID#: 0377
!!!RDF**harmony: **recip + pitch class of root + harmonic quality
!!!RDF**harte: Chris Harte's syntax, used by MIREX
!!!RDF**phrase: newline = linebreak in original McGill transcription
!!!RDF**timestamp: McGill audio timestamp in seconds
!!!RDF**leadinstrument: original McGill primary instrumentation annotation
!!!RDT: 2017/01/12/
!!!ENC: Nathaniel Condit-Schultz
!!!EST: Awating manual error checking and editing.
